X:1
T:Dichterliebe, Op.48
T:Die alten, bösen Lieder
T:16. Die alten, bösen Lieder
T:Robert Schumann
T:Dichterliebe, Op.48
T:Heinrich Heine
T:OpenScore (CC0)
T:OpenScore (CC0)
T:OpenScore (CC0)
T:OpenScore (CC0)
C:Robert Schumann
Z:Heinrich Heine
Z:OpenScore (CC0)
%%score 1 { ( 2 5 6 ) | ( 3 4 ) }
L:1/8
Q:1/4=80
M:4/4
K:E
V:1 treble nm="Voice"
V:2 treble nm="Piano"
V:5 treble 
V:6 treble 
V:3 bass 
V:4 bass 
V:1
"^Ziemlich langsam" !fermata!z8 | z8 | z4 z2 z!f! c | c3 c G3 G | C2 C2 z2 z C | F3 F G3 G | %6
w: ||Die|al- ten, bö- sen|Lie- der, die|Träu- me bös' und|
 C4 z2 z c | c3 c G3 G | C2 C2 z4 | F2 FF G3 G | C4 z2 z c | c3 c D3 D | B2 B2 z2 G2 | %13
w: arg, die|lasst uns jetzt be-|gra- ben;|holt ein- en gro- ssen|Sarg. Hin-|ein leg' ich gar|Man- ches, doch|
 ^A3 A ^^F2 F2 | G4 z2 z E | E3 G G3 B | (B3 e) e2 (GA) | B3 B B3 B | E4 z2 z B | B2 A A G3 F | %20
w: sag' ich noch nicht,|was. Der|Sarg muss sein noch|grös- * ser wie's _|Hei- del- ber- ger|Fass. Und|holt ei- ne Tod- ten-|
 (^E3 G) G2 z B | B3 A G2 F2 | ^E4 z2 z F | F3 A A3 c | (c3 f) f2 (AB) | c3 c c3 c | F4 z2 z c | %27
w: bah- * re und|Bre- ter fest und|dick auch|muss sie sein noch|län- * ger, als _|wie zu Mainz die|Brück'. Und|
 c3 B ^A2 G2 | ((^^F3 ^A)) A2 z c | c2 BB ^A3 G | ^^F4 z2 G2 | G3 ^B B3 d | (d3 g) g2 (^Bc) | %33
w: holt mir auch zwölf|Rie- * sen, die|müs- sen noch stär- ker|sein, als|wie der heil'- ge|Chri- * stoph im _|
 d3 d d2 d2 | G6!f! G2 | c2 c c G2 G2 | C2 C2 z2 C2 | A2 A A G3 G | !fermata!=G6 z G | F3 F d3 d | %40
w: Dom zu Köln am|Rhein, die|sol- len den Sarg fort-|tra- gen, und|sen- ken in's Meer hin-|ab; denn|sol- chem gros- sen|
 E2 E2 z2 c2 | D3 D G3 G | C4 z4 |!p! C2 C C =D3 D | C2 C2 z2 z ^E | C3 C G3 G | (C6{c)}!p! c2 || %47
w: Sar- ge ge-|bührt ein gros- ses|Grab.|Wisst ihr, wa- rum der|Sarg wohl so|gross und schwer mag|sein? Ich|
[Q:1/4=72]"^Adagio" c3 c B2 c2 | e4 =d2 c2 | ^B3 B c3 c | A4 z4 | z8 || %52
w: senk't auch mei- ne|Lie- be und|mei- nen Schmerz hin-|ein!||
[K:Db][M:6/4][Q:1/4=96]"^Andante espressivo" z12 | z12 | z12 | z12 | z12 | z12 | z12 | z12 | z12 | %61
w: |||||||||
 z12 | z12 | z12 | z12 | z12 | z4 z2 |] %67
w: ||||||
V:2
 !fermata![cegc']6 z3/2!ff! [cc']/ | !>![cc']7/2 [Gg]/ !>![Gg]7/2 [Cc]/ | !>![Cc]6!f! .c.[cd] | %3
 (!>![ce]f).e.c' (!>![^Bd]e).d.^b | (!>![ce]f).e.c' (!>![Gc]d).c.g | ([Ac]d).c.a ([G^B]c).B.g | %6
 ([Gc]d).c.g (cd).c.[cd] | ([ce]f).e.c' ([^Bd]e).d.^b | ([ce]f).e.c' ([Gc]d).c.g | %9
 ([Ac]d).c.a ([G^B]c).B.g | ([Gc]d).c.g (cd).c.[cd] | ([ce]f).e.c' ([^Ad]e).d.^a | %12
 ([Bd]e).d.b ([Bd]e).d.g | ([ce]f).e.^a ([^Ad]e).d.^^f | ([Bd]e).d.g G2!f! .E.F | %15
 (EF).G.A (GA).B.c |!<(! (Bd).e.f (ef).g.a!<)! | (bc').g.a (bc').b.[fd'] | %18
 .[ge'].[fd'].[ge'].[fd'] [ge']2!p! .=d.e | ([=df]b).d.e ([df]b).^e.f | %20
 ([^eg]b).e.f ([eg]b).=d.=e | ([=df]b).d.e ([df]b).^e.f | ([^eg]b).e.f ([eg]b)!f! .F.G | %23
 (FG).A.B (AB).c.=d | (c^e).f.g (fg).a.b |!<(! (c'=d').a.b (c'd').c'.[g^e']!<)! | %26
 .[af'].[g^e'].[af'].[ge'] [af']2!p! .=e.f | ([eg]c').e.f ([eg]c').^^f.g | %28
 ([^^f^a]c').f.g ([fa]c').e.^f | ([eg]c').e.f ([eg]c').^^f.g | ([^^f^a]c').f.g ([fa]c')!f! .G.^A | %31
 (G^A).^B.c (Bc).d.^e | (d^^f).g.^a (ga).^b.c' | (d'^e').^b.c' (d'e').d'.[^ad'^^f'] | %34
 .[^bd'g'].[^ad'^^f'].[bd'g'].[ad'f'] [bd'g']2!f! [^Bdg]2 | z2 !>![cegc']2 z2 !>![G^Bdg]2 | %36
 z2 !>![EGc]2 z2 !>![EAc]2 | z2 !>![Acfa]2 z2 !>![G^Bdg]2 | z2!sfz! !fermata![E=G^Ae]6 | %39
 !>![F,^B,DF]4 !>![DF^Bd]4 |[I:staff +1]{/C,} !>![C,G,C]4[I:staff -1] !>![CEGc]4 | %41
 !>![CDFA]4 !>![DFG]4 |[I:staff +1] [C,C]!>(! [C,C]2 [C,C]2 [C,C]2 [C,C]-!>)! | %43
!p! [C,C] [^E,G,B,C]2 [E,G,B,C]2 [E,G,B,=D]2 [E,G,B,D]- | %44
 [E,G,B,D] [^E,G,B,C]2 [E,G,B,C]2 [G,B,C^E]2 [G,B,CE]- | %45
 [G,B,CE] [^E,G,B,C]2 [E,G,B,C]2[I:staff -1] [B,C^EG]2 [B,CEG]- | %46
 [B,CEG][I:staff +1] [^E,G,B,C]2 [E,G,B,C]2[I:staff -1] [^EGc]2 [EGc] || %47
!p!!<(! ([C=E]4 B,2 C2)!<)! |!>(! [=G,C=G]4 [F,=DF]4!>)! | [^B,^DF]4[I:staff +1] [E,C-E]4 | %50
 [D,A,C]8- | [D,A,C]6 [D,G,^B,]2 ||[K:Db][M:6/4][I:staff -1] z (e- e4- (e f4) g- | %53
 ga- a4- a d4!<(!!>(! [FA_c=d-]!<)!!>)! | de- e4- e f4 _g- | _ga- a4- a d4 [Ed-] | %56
 df- f4- fe- e4- | ed- d4- dA- A4) | !arpeggio![CG] (gfedc BA=GA{BAGA} B>_G) | %59
 G (_c'bagf ed=cd{edcd} e>_c) |!<(! (Bage=df e!<)!!>(!B _d2 c!>)!B) | %61
!<(! (Bage=df eB!<)!!>(! _d2 c._c)!>)! |!<(! (Bage=df e)(d'c'a=gb!<)! | %63
 _a)(g'f'd'c'e'"^cresc." d'c'ba__ba) | (gfed f>e) (d4 f>e | d4) (f>e d6-) | [Fd]2 z2 z2 |] %67
V:3
!ped!{[C,G,E]} C,,6 z3/2!ped-up! [C,C]/ | [C,C]7/2 [G,,G,]/ [G,,G,]7/2 [C,,C,]/ | %2
 [C,,C,]6 [G,CE][G,CE] | [G,CE]2 C,C, [G,DF]2 C,C, | [G,CE]2 C,C, [G,CE]2 E,E, | %5
 [A,CF]2 F,F, [G,DF]2 G,G, | [G,CE]2 C,C, [G,CE]2 [G,CE][G,CE] | [G,CE]2 C,C, [G,DF]2 C,C, | %8
 [G,CE]2 C,C, [G,CE]2 C,C, | [A,CF]2 F,F, [G,DF]2 G,,G,, | [G,CE]2 C,C, [G,CE]2 [^A,CE^^F][A,CEF] | %11
 [^A,CE^^F]2 C,C, [A,CDF]2 D,D, | [B,DG]2 G,,G,, [B,DG]2 B,,B,, | [CE^A]2 C,C, [CD^^F]2 D,D, | %14
 [B,DG]2 G,G, [B,D]2 [E,,E,][E,,E,] | [E,,E,]2 [G,,G,][G,,G,] [G,,G,]2 [B,,B,][B,,B,] | %16
 [B,,B,]2 [E,E][E,E] [E,E]2[K:treble] .[G,G].[A,A] | [B,B]2 .[G,G].[A,A] [B,B]2 .[B,B].[B,B] | %18
 .[EB].[B,B].[EB].[B,B] [EB]2 [=DFB][DFB] | [=DFB]2 [DFB][DFB] [DFB]2 [C^EB][CEB] | %20
 [C^EB]2 [CEB][CEB] [CEB]2 [=DFB][DFB] | [=DFB]2 [DFB][DFB] [DFB]2 [C^EB][CEB] | %22
 [C^EB]2 [CEB][CEB] [CEB]2[K:bass] [F,,F,][F,,F,] | [F,,F,]2 [A,,A,][A,,A,] [A,,A,]2 [C,C][C,C] | %24
 [C,C]2 [F,F][F,F] [F,F]2[K:treble] .[A,A].[B,B] | [Cc]2 .[A,A].[B,B] [Cc]2 [Cc][Cc] | %26
 .[Fc].[Cc].[Fc].[Cc] [Fc]2 [EGc][EGc] | [EGc]2 [EGc][EGc] [EGc]2 [D^^Fc][DFc] | %28
 [D^^Fc]2 [DFc][DFc] [DFc]2 [EGc][EGc] | [EGc]2 [EGc][EGc] [EGc]2 [D^^Fc][DFc] | %30
 [D^^Fc]2 [DFc][DFc] [DFc]2[K:bass] [G,,G,][G,,G,] | %31
 [G,,G,]2 [^B,,^B,][B,,B,] [B,,B,]2 [D,D][D,D] | [D,D]2[K:treble] [G,G][G,G] [G,G]2 .[^B,^B].[Cc] | %33
 [Dd]2 .[^B,^B].[Cc] [Dd]2 .[Dd].[Dd] | .[Gd].[Dd].[Gd].[Dd] [Gd]2 [G,G]2 | %35
[K:bass] [C,C]2 [G,CE]2 [G,,G,]2 [G,^B,D]2 | [C,,C,]2 [E,G,C]2 [A,,A,]2 [E,A,C]2 | %37
 [F,,F,]2 [F,A,CF]2 [G,,G,]2 [G,^B,D]2 |!ped! [^A,,,^A,,]2!ped-up! !fermata![C,G,^A,C]6 | %39
 !>![=A,,,=A,,]4 !>![A,,A,]4 | !>![E,,,E,,]4 !>![E,,E,]4 | !>![F,,,F,,]4 [F,G,^B,]4 | [C,,,C,,]8 | %43
 [C,,C,]4 [=D,,=D,]4 | [C,,C,]4 [^E,,^E,]4 | [C,,C,]4 [G,,G,]4 | [C,,C,]4 [C,-C]4 || %47
 ([C,=E,]4 =D,2 E,2) | [A,,E,]4 =D,4 | F,4 [A,,,A,,]4 | [F,,,F,,]8- | [F,,,F,,]6 [G,,,G,,-]2 || %52
[K:Db][M:6/4]!ped! [D,,A,,]6 G,6!ped-up! | F,6 __B,4- B,A, | =G,6 _G,6 | F,6 __B,4- B,_B, | %56
 [A,,A,]6 A,6 | A,,6 A,6 |!ped! !arpeggio![D,A,]12!ped-up! |!ped! !arpeggio![D,A,]12!ped-up! | %60
 B,4 [F,A,=D]2 [G,B,E]2 _D2 CB, | (=D,2 E,2 [F,A,=D]2 [G,B,E]2 _D2 C_C) | %62
 ([=D,B,]2 [E,B,]2 [F,B,=D]2 [=G,B,E]2[K:treble] [A,EA]2 [B,E=G]2) | %63
 ([CEA]2 [DAd]2 [EAc]2 dcBA__BA) | (GFED)[K:bass] A,2- [D,A,]4 A,2- | [D,A,]4 CA,, D,4 D,2- | %66
 [D,,A,,D,]2 z2 z2 |] %67
V:4
 x8 | x8 | x8 | x8 | x8 | x8 | x8 | x8 | x8 | x8 | x8 | x8 | x8 | x8 | x8 | x8 | x6[K:treble] x2 | %17
 x8 | x8 | x8 | x8 | x8 | x6[K:bass] x2 | x8 | x6[K:treble] x2 | x8 | x8 | x8 | x8 | x8 | %30
 x6[K:bass] x2 | x8 | x2[K:treble] x6 | x8 | x8 |[K:bass] x8 | x8 | x8 | x8 | x8 | x8 | %41
 x4 !>![G,,,G,,]4 | x8 | x8 | x8 | x8 | x8 || A,,8 | =D,,8 | [^G,,,^G,,]4 x4 | x8 | x8 || %52
[K:Db][M:6/4] x12 | x12 | x12 | x12 | x12 | x12 | x12 | x F3- F6 x2 | (=D,2 E,2 x4 [A,_D]3 B,) | %61
 B,4 x4 A,4 | x8[K:treble] x4 | x6 [=EB]2 [Fc]2 [C_G]2 | [DA]2 [=G,E]2[K:bass] CA,, x4 CA,, | %65
 x4 A,2- A,2 x4 | x6 |] %67
V:5
 x8 | x8 | x8 | x8 | x8 | x8 | x8 | x8 | x8 | x8 | x8 | x8 | x8 | x8 | x8 | x8 | x8 | x8 | x8 | %19
 x8 | x8 | x8 | x8 | x8 | x8 | x8 | x8 | x8 | x8 | x8 | x8 | x8 | x8 | x8 | x8 | x8 | x8 | x8 | %38
 x8 | x8 | x8 | x8 | x8 | x8 | x8 | x8 | x8 || =G,8 | x8 | x8 | x8 | x8 || %52
[K:Db][M:6/4][I:staff +1] [G,A,CE][I:staff -1] ecA[I:staff +1]EC[I:staff -1] z fcA[I:staff +1]EC | %53
[I:staff -1] z adA[I:staff +1]FD[I:staff -1] z d=G=E[I:staff +1]D[_C=D] | %54
[I:staff -1] z eB=G[I:staff +1]EB,[I:staff -1] z f=cA[I:staff +1]E=C | %55
[I:staff -1] z adA[I:staff +1]FD[I:staff -1] z d=G_F[I:staff +1]D_B, | %56
[I:staff -1] z fdA[I:staff +1]FD[I:staff -1] z cA_G[I:staff +1]EC | %57
[I:staff -1] z dAF[I:staff +1]DA,-[I:staff -1] z AGE[I:staff +1]CA, | x12 |[I:staff -1] [_CG]3 x9 | %60
 [FA]2 G2 [AB]2 G2 [FA]2 E2 | [FA]2 G2 [AB]2 G2 [FA-]2 [EA]2 | [FA]2 G2 A2 [B_d]2 c2 [de]2 | %63
 [eg]2 f2 [ga]2 [=gb]2 f2 [e_g]2 | d2 B2 A_G FAF[I:staff +1]D[I:staff -1] G2 | %65
 FAF[I:staff +1]D[I:staff -1] G2- G G-[I:staff +1]DA,D,A,,- | x6 |] %67
V:6
 x8 | x8 | x8 | x8 | x8 | x8 | x8 | x8 | x8 | x8 | x8 | x8 | x8 | x8 | x8 | x8 | x8 | x8 | x8 | %19
 x8 | x8 | x8 | x8 | x8 | x8 | x8 | x8 | x8 | x8 | x8 | x8 | x8 | x8 | x8 | x8 | x8 | x8 | x8 | %38
 x8 | x8 | x8 | x8 | x8 | x8 | x8 | x8 | x8 || x8 | x8 | x8 | x8 | x8 ||[K:Db][M:6/4] x12 | x12 | %54
 x12 | x12 | x12 | x12 | x12 | x12 | x12 | x12 | x12 | x12 | x2 b2 c2 x6 | x8 G4 | x6 |] %67

